assets/prototypes/bbc_news_frontpage/03_October_2016/assets/icons/gel-icons-social.svg

<svg height="34" viewBox="0 0 34 34" width="34" xmlns="http://www.w3.org/2000/svg"><g fill="none" fill-rule="evenodd"><g fill="#000" transform="translate(1)"><path d="m7 19.6v6h6l.7-.6-6-6z"/><path d="m26 .6-16.7 16.8 6 6 10.7-10.8v18h-24v-24h12v-2h-14v28h28v-22l4-4z"/></g><path d="m0 0v32l8-8h24v-24zm4 10h18v4h-18zm24 10h-24v-4h24zm0-12h-24v-4h24z" fill="#000" transform="translate(1 1)"/><g transform="translate(0 4)"><path d="m4.1 10.4v5.9h1.9c-5-19.3.4 0 .4-.4v-5.9h-1.9c-3.5-13-.4 0-.4.4z"/><g fill="#000"><path d="m6.7 3.5c-5.7-6.5-.4 0-.4.4v3.7h-5c7.1-10.6-.4 0-.4.4v10.7h8.2c13.3-21.7.4 0 .4-.4v-14.8zm-.3 12.4c0 .4-.4.4-.4.4h-1.9v-5.9c0-.4.4-.4.4-.4h1.9z"/><path d="m10.5 8v10.7h2.8c9.1-21.7.4 0 .4-.4v-10.7h-2.8c-9.9-10.6-.4 0-.4.4z"/><path d="m10.9 3.5c-9.9-6.5-.4 0-.4.4v2h2.8c-8.3-8.9.4 0 .4-.4v-2z"/><path d="m24.8 7.6c-23.8-10.6-.4 0-.4.4v10.7h5.4v1.4h-5c-21-23.1-.4 0-.4.4v2h8.2c-27.6-25.5.4 0 .4-.4v-14.5zm5 8.3c0 .4-.4.4-.4.4h-1.9v-5.9c0-.4.4-.4.4-.4h1.9z"/><path d="m15.1 7.6c-14.1-10.6-.4 0-.4.4v10.7h5.4v1.4h-5c-11.3-23.1-.4 0-.4.4v2h8.3c-22-25.5.4 0 .4-.4v-14.5zm5.1 8.3c0 .4-.4.4-.4.4h-1.9v-5.9c0-.4.4-.4.4-.4h1.9z"/></g></g><g fill="#000"><g transform="translate(1 4)"><path d="m13 0h19v6h-19z"/><path d="m17 10h15v6h-15z"/><path d="m13 20h19v6h-19z"/><path d="m14 11h-5v-5h-4v5h-5v4h5v5h4v-5h5z"/></g><path d="m32 13h-13v-13h-6v13h-13v6h13v13h6v-13h13z" transform="translate(1 1)"/><g transform="translate(1 3)"><path d="m14 0v6h6v8h6l6 6v-20zm16 12h-8v-2h8zm0-4h-8v-2h8zm0-4h-14v-2h14z"/><path d="m0 22v6l6-6h12v-14h-18zm2-12h14v2h-14zm0 4h10v2h-10zm0 4h12v2h-12z"/></g><g transform="translate(1 1)"><path d="m32 14.2h-4.2v-4.2h-2.2v4.2h-4.2v2.1h4.2v4.2h2.2v-4.2h4.2z"/><path d="m18.6 1.7h-2.5c.9.8 2.9 2.3 2.9 5.5 0 3.1-1.8 4.6-3.6 6-.6.5-1.2 1.1-1.2 2.1 0 .9.6 1.4 1.1 1.8l1.5 1.2c1.9 1.6 3.6 3 3.6 5.9 0 3.9-4 8-11.4 8-6.1-.2-9-3.1-9-6.2 0-1.5.8-3.6 3.3-5.1 2.7-1.6 6.2-1.8 8.2-1.9-.6-.8-1.3-1.5-1.3-2.8 0-.7.2-1.1.4-1.6-.5 0-.9.1-1.4.1-4.5 0-7.1-3.3-7.1-6.6 0-1.9.6-4.2 2.4-5.8 2.5-2.1 5.6-2.3 7.9-2.3h8.9zm-11.2 19.1c-.9.3-3.7 1.3-3.7 4.3s3 5.1 7.5 5.1c4.1 0 6.3-1.9 6.3-4.5 0-2.1-1.4-3.3-4.7-5.5h-1c-.3-.1-2.6 0-4.4.6zm2.4-19.3c-1.1 0-2.3.4-3 1.3s-.9 2.1-.9 3.2c0 2.8 1.7 7.5 5.3 7.5 1.1 0 2.2-.6 2.9-1.3 1-1 1.1-2.2 1.1-3 0-3-1.8-7.7-5.4-7.7z"/></g><g transform="translate(1 1)"><path d="m7.3 31.5v-20.9h-6.9v20.9zm-3.5-23.8c2.4 0 3.9-1.6 3.9-3.6s-1.5-3.6-3.8-3.6c-2.4 0-3.9 1.6-3.9 3.6s1.5 3.6 3.8 3.6z"/><path d="m11.1 31.5h6.9v-11.7c0-.6 0-1.3.2-1.7.5-1.2 1.6-2.5 3.5-2.5 2.5 0 3.5 1.9 3.5 4.7v11.2h6.8v-12c0-6.4-3.4-9.4-7.9-9.4-3.7 0-5.3 2.1-6.2 3.5v-3h-6.9c.2 1.9.1 20.9.1 20.9z"/></g><path d="m30 6v-6h-28v6h-2v24h12l2-5h11l2 5h5v-24zm-24 14c-1.1 0-2-.9-2-2s.9-2 2-2 2 .9 2 2-.9 2-2 2zm0-6c-1.1 0-2-.9-2-2s.9-2 2-2 2 .9 2 2-.9 2-2 2zm13.5 9c-3.6 0-6.5-2.9-6.5-6.5s2.9-6.5 6.5-6.5 6.5 2.9 6.5 6.5-2.9 6.5-6.5 6.5zm8.5-17h-24v-4h24z" transform="translate(1 2)"/><path d="m16 0c-8.8 0-16 7.2-16 16 0 6.6 3.9 12.2 9.6 14.7 0-1.1 0-2.5.3-3.7.3-1.3 2.1-8.7 2.1-8.7s-.5-1-.5-2.5c0-2.4 1.4-4.1 3.1-4.1 1.5 0 2.2 1.1 2.2 2.4 0 1.5-.9 3.7-1.4 5.7-.4 1.7.9 3.1 2.5 3.1 3 0 5.1-3.9 5.1-8.5 0-3.5-2.4-6.1-6.7-6.1-4.9 0-7.9 3.6-7.9 7.7 0 1.4.4 2.4 1.1 3.1.3.4.3.5.2.9-.1.3-.3 1-.3 1.3-.1.4-.4.6-.8.4-2.2-.9-3.3-3.4-3.3-6.1 0-4.5 3.8-10 11.4-10 6.1 0 10.1 4.4 10.1 9.2 0 6.3-3.5 11-8.6 11-1.7 0-3.4-.9-3.9-2 0 0-.9 3.7-1.1 4.4-.3 1.2-1 2.5-1.6 3.4 1.4.4 3 .7 4.5.7 8.8 0 16-7.2 16-16s-7.3-16.3-16.1-16.3z" transform="translate(1 1)"/><path d="m16 28c-6.6 0-12-5.4-12-12s5.4-12 12-12c3.1 0 6 1.2 8.1 3.2l-8.7 10.4-5.4-3.8-3 3.5 8.8 6.8 11-13.1 2.8-3.3c-2.8-4.6-7.8-7.7-13.6-7.7-8.8 0-16 7.2-16 16s7.2 16 16 16 16-7.2 16-16h-4c0 6.6-5.4 12-12 12" transform="translate(1 1)"/><path d="m5.8 22.2c1.6 0 3-.7 4-1.8l9 4.8c-.1.4-.2.8-.2 1.3 0 3 2.5 5.5 5.5 5.5s5.5-2.4 5.5-5.5-2.5-5.5-5.5-5.5c-1.6 0-3 .7-4 1.8l-9.5-5.2-.1-2.8 9.7-5.5c1 1 2.3 1.5 3.8 1.5 3 0 5.5-2.5 5.5-5.5s-2.3-5.3-5.3-5.3-5.5 2.4-5.5 5.5c0 .6.1 1.1.2 1.6l-9.3 5.7c-1-.9-2.3-1.5-3.8-1.5-3 0-5.5 2.4-5.5 5.5.1 2.9 2.5 5.4 5.5 5.4z" transform="translate(2 1)"/><g transform="translate(2 2)"><path d="m0 0v30h30v-30zm19.8 22.6-1.3-2.6h-7l-1.4 2.6c-2.4-1.6-4.1-4.4-4.1-7.6 0-5 4-9 9-9s9 4 9 9c0 3.2-1.7 6-4.2 7.6z"/><circle cx="15" cy="15" r="3.5"/></g><path d="m0 0v30h30v-30zm21.1 21.6-.5-1.1c1.4-1.4 2.3-3.4 2.3-5.6 0-4.3-3.5-7.9-7.9-7.9s-7.9 3.7-7.9 8c0 2.7 1.4 5.2 3.5 6.6l.8-1.6h7l1.3 2.6c-1.3.9-2.9 1.4-4.7 1.4-5 0-9-4-9-9s4-9 9-9 9 4 9 9c0 2.6-1.1 5-2.9 6.6zm-2.6-6.6c0 1.9-1.6 3.5-3.5 3.5s-3.5-1.6-3.5-3.5 1.6-3.5 3.5-3.5 3.5 1.6 3.5 3.5z" transform="translate(2 2)"/><path d="m16 0c-8.8 0-16 7.2-16 16s7.2 16 16 16 16-7.2 16-16-7.2-16-16-16zm0 13c-.8 0-1.5.7-1.6 1.5v3.1c-.1 2.2-1.9 3.9-4.1 3.9s-4-1.7-4.1-3.9v-1.6h2.5v1.6c0 .8.7 1.5 1.5 1.5s1.5-.6 1.5-1.5v-3.1c.1-2.2 1.9-3.9 4.1-3.9s4 1.7 4 3.9l-1.5.4-1-.4c.2-.9-.5-1.5-1.3-1.5zm9.7 4.6c-.1 2.2-1.9 3.9-4.1 3.9s-4-1.7-4.1-3.9v-1.6l1 .4 1.5-.4v1.6c0 .8.7 1.5 1.5 1.5s1.5-.6 1.5-1.5v-1.6h2.5v1.6z" transform="translate(1 1)"/><g transform="translate(1 1)"><path d="m22 6c2.2 0 4.2.9 5.7 2.3l1.4-1.4c-1.8-1.8-4.3-2.9-7.1-2.9s-5.3 1.1-7.1 2.9l1.4 1.4c1.5-1.4 3.5-2.3 5.7-2.3"/><path d="m22 2c3.3 0 6.3 1.3 8.5 3.5l1.5-1.4c-2.6-2.5-6.1-4.1-10-4.1s-7.4 1.6-9.9 4.1l1.4 1.4c2.2-2.2 5.2-3.5 8.5-3.5"/><path d="m14 12h-5v-5h-4v5h-5v4h5v5h4v-5h5z"/><path d="m26 14c0 2.2-1.8 4-4 4s-4-1.8-4-4 1.8-4 4-4 4 1.8 4 4"/><path d="m16 19h12l-3 13h-6z"/></g><g transform="translate(4 1)"><path d="m22 4v3h1v22h-20v-22h3v2h14v-6h-4c0-1.7-1.3-3-3-3s-3 1.3-3 3h-4v1h-6v28h26v-28z"/><path d="m8.5 16.2-2 2.3 5.3 4.5 7.5-9-2.3-1.9-5.5 6.6z"/></g><path d="m11 0v8.2h6.3v4.8h-6.4v8.3c0 1.9.2 2.8.4 3.3s.5.9 1 1.2 1 .4 1.8.4c.4 0 1.4-.1 2.5-.6l1.5 4.6c-.6.5-1.5 1.1-2.9 1.5-1.2.2-2 .3-3.2.3-1.4 0-2.3-.2-3.4-.6s-1.8-.9-2.6-1.6-1.3-1.4-1.7-2.2c-.5-.8-1-2.2-1.1-3.8v-10.8h-3.2v-4.2c1.2-.4 2.1-1 3-1.8 1.2-1.1 1.7-2 2.1-2.9.5-1 .9-2.5 1.1-4.1z" transform="translate(8 1)"/><path d="m33 3.1c-1.2.5-2.4.9-3.8 1 1.4-.8 2.4-2.1 2.9-3.6-1.3.8-2.7 1.3-4.2 1.6-1.2-1.3-2.9-2.1-4.7-2.1-3.6 0-6.6 2.9-6.6 6.6 0 .5.1 1 .2 1.5-5.5-.3-10.3-2.9-13.6-6.9-.6 1-.9 2.1-.9 3.3 0 2.3 1.2 4.3 2.9 5.5-1.1 0-2.1-.3-3-.8v.1c0 3.2 2.3 5.8 5.3 6.4-.6.1-1.1.2-1.7.2-.4 0-.8 0-1.2-.1.8 2.6 3.3 4.5 6.1 4.6-2.2 1.8-5.1 2.8-8.2 2.8-.5 0-1.1 0-1.6-.1 3 1.8 6.5 2.9 10.2 2.9 12.1 0 18.7-10 18.7-18.7v-.9c1.2-.9 2.3-2 3.2-3.3z" transform="translate(0 4)"/></g></g></svg>

<?xml version="1.0" encoding="UTF-8" standalone="no"?>
<svg width="34px" height="34px" viewBox="0 0 34 34" version="1.1" xmlns="http://www.w3.org/2000/svg" xmlns:xlink="http://www.w3.org/1999/xlink">
    <!-- Generator: Sketch 3.6.1 (26313) - http://www.bohemiancoding.com/sketch -->
    <title>gel-icons-social</title>
    <desc>Created with Sketch.</desc>
    <defs></defs>
    <g id="Page-1" stroke="none" stroke-width="1" fill="none" fill-rule="evenodd">
        <g id="gel-icons-social">
            <g id="gel-icon-blog" transform="translate(1.000000, 0.000000)" fill="#000000">
                <g id="blog-Layer_2">
                    <path d="M7,19.6 L7,25.6 L13,25.6 L13.7,25 L7.7,19 L7,19.6 Z" id="Shape"></path>
                    <path d="M26,0.6 L9.3,17.4 L15.3,23.4 L26,12.6 L26,30.6 L2,30.6 L2,6.6 L14,6.6 L14,4.6 L0,4.6 L0,32.6 L28,32.6 L28,10.6 L32,6.6 L26,0.6 Z" id="Shape"></path>
                </g>
            </g>
            <g id="gel-icon-comments" transform="translate(1.000000, 1.000000)" fill="#000000">
                <path d="M0,0 L0,32 L8,24 L32,24 L32,0 L0,0 L0,0 Z M4,10 L22,10 L22,14 L4,14 L4,10 L4,10 Z M28,20 L4,20 L4,16 L28,16 L28,20 L28,20 Z M28,8 L4,8 L4,4 L28,4 L28,8 L28,8 Z" id="comments-Layer_2"></path>
            </g>
            <g id="gel-icon-digg" transform="translate(0.000000, 4.000000)">
                <g id="digg-Layer_2">
                    <path d="M4.1,10.4 L4.1,16.3 L6,16.3 C1,-3 6.4,16.3 6.4,15.9 L6.4,10 L4.5,10 C1,-3 4.1,10 4.1,10.4 L4.1,10.4 Z" id="Shape"></path>
                    <path d="M6.7,3.5 C1,-3 6.3,3.5 6.3,3.9 L6.3,7.6 L1.3,7.6 C8.4,-3 0.9,7.6 0.9,8 L0.9,18.7 L9.1,18.7 C22.4,-3 9.5,18.7 9.5,18.3 L9.5,3.5 L6.7,3.5 L6.7,3.5 Z M6.4,15.9 C6.4,16.3 6,16.3 6,16.3 L4.1,16.3 L4.1,10.4 C4.1,10 4.5,10 4.5,10 L6.4,10 L6.4,15.9 L6.4,15.9 Z" id="Shape" fill="#000000"></path>
                    <path d="M10.5,8 L10.5,18.7 L13.3,18.7 C22.4,-3 13.7,18.7 13.7,18.3 L13.7,7.6 L10.9,7.6 C1,-3 10.5,7.6 10.5,8 L10.5,8 Z" id="Shape" fill="#000000"></path>
                    <path d="M10.9,3.5 C1,-3 10.5,3.5 10.5,3.9 L10.5,5.9 L13.3,5.9 C5,-3 13.7,5.9 13.7,5.5 L13.7,3.5 L10.9,3.5 L10.9,3.5 Z" id="Shape" fill="#000000"></path>
                    <path d="M24.8,7.6 C1,-3 24.4,7.6 24.4,8 L24.4,18.7 L29.8,18.7 L29.8,20.1 L24.8,20.1 C3.8,-3 24.4,20.1 24.4,20.5 L24.4,22.5 L32.6,22.5 C5,-3 33,22.5 33,22.1 L33,7.6 L24.8,7.6 L24.8,7.6 Z M29.8,15.9 C29.8,16.3 29.4,16.3 29.4,16.3 L27.5,16.3 L27.5,10.4 C27.5,10 27.9,10 27.9,10 L29.8,10 L29.8,15.9 L29.8,15.9 Z" id="Shape" fill="#000000"></path>
                    <path d="M15.1,7.6 C1,-3 14.7,7.6 14.7,8 L14.7,18.7 L20.1,18.7 L20.1,20.1 L15.1,20.1 C3.8,-3 14.7,20.1 14.7,20.5 L14.7,22.5 L23,22.5 C1,-3 23.4,22.5 23.4,22.1 L23.4,7.6 L15.1,7.6 L15.1,7.6 Z M20.2,15.9 C20.2,16.3 19.8,16.3 19.8,16.3 L17.9,16.3 L17.9,10.4 C17.9,10 18.3,10 18.3,10 L20.2,10 L20.2,15.9 L20.2,15.9 Z" id="Shape" fill="#000000"></path>
                </g>
            </g>
            <g id="gel-icon-facebook" transform="translate(9.000000, 1.000000)"></g>
            <g id="gel-icon-favourites" transform="translate(1.000000, 4.000000)" fill="#000000">
                <g id="favourites-Layer_2">
                    <path d="M13,0 L32,0 L32,6 L13,6 L13,0 Z" id="Shape"></path>
                    <path d="M17,10 L32,10 L32,16 L17,16 L17,10 Z" id="Shape"></path>
                    <path d="M13,20 L32,20 L32,26 L13,26 L13,20 Z" id="Shape"></path>
                    <path d="M14,11 L9,11 L9,6 L5,6 L5,11 L0,11 L0,15 L5,15 L5,20 L9,20 L9,15 L14,15 L14,11 Z" id="Shape"></path>
                </g>
            </g>
            <g id="gel-icon-add" transform="translate(1.000000, 1.000000)" fill="#000000">
                <path d="M32,13 L19,13 L19,0 L13,0 L13,13 L0,13 L0,19 L13,19 L13,32 L19,32 L19,19 L32,19 L32,13 Z" id="Shape"></path>
            </g>
            <g id="gel-icon-feedback" transform="translate(1.000000, 3.000000)" fill="#000000">
                <g id="feedback-Layer_2">
                    <path d="M14,0 L14,6 L20,6 L20,14 L26,14 L32,20 L32,0 L14,0 L14,0 Z M30,12 L22,12 L22,10 L30,10 L30,12 L30,12 Z M30,8 L22,8 L22,6 L30,6 L30,8 L30,8 Z M30,4 L16,4 L16,2 L30,2 L30,4 L30,4 Z" id="Shape"></path>
                    <path d="M0,22 L0,28 L6,22 L18,22 L18,8 L0,8 L0,22 L0,22 Z M2,10 L16,10 L16,12 L2,12 L2,10 L2,10 Z M2,14 L12,14 L12,16 L2,16 L2,14 L2,14 Z M2,18 L14,18 L14,20 L2,20 L2,18 L2,18 Z" id="Shape"></path>
                </g>
            </g>
            <g id="gel-icon-google-plus" transform="translate(1.000000, 1.000000)" fill="#000000">
                <g id="google-plus-Layer_2">
                    <path d="M32,14.2 L27.8,14.2 L27.8,10 L25.6,10 L25.6,14.2 L21.4,14.2 L21.4,16.3 L25.6,16.3 L25.6,20.5 L27.8,20.5 L27.8,16.3 L32,16.3 L32,14.2 Z" id="Shape"></path>
                    <path d="M18.6,1.7 L16.1,1.7 C17,2.5 19,4 19,7.2 C19,10.3 17.2,11.8 15.4,13.2 C14.8,13.7 14.2,14.3 14.2,15.3 C14.2,16.2 14.8,16.7 15.3,17.1 L16.8,18.3 C18.7,19.9 20.4,21.3 20.4,24.2 C20.4,28.1 16.4,32.2 9,32.2 C2.9,32 1.77635684e-15,29.1 1.77635684e-15,26 C1.77635684e-15,24.5 0.8,22.4 3.3,20.9 C6,19.3 9.5,19.1 11.5,19 C10.9,18.2 10.2,17.5 10.2,16.2 C10.2,15.5 10.4,15.1 10.6,14.6 C10.1,14.6 9.7,14.7 9.2,14.7 C4.7,14.7 2.1,11.4 2.1,8.1 C2.1,6.2 2.7,3.9 4.5,2.3 C7,0.2 10.1,0 12.4,0 L21.3,0 L18.6,1.7 L18.6,1.7 Z M7.4,20.8 C6.5,21.1 3.7,22.1 3.7,25.1 C3.7,28.1 6.7,30.2 11.2,30.2 C15.3,30.2 17.5,28.3 17.5,25.7 C17.5,23.6 16.1,22.4 12.8,20.2 L11.8,20.2 C11.5,20.1 9.2,20.2 7.4,20.8 L7.4,20.8 Z M9.8,1.5 C8.7,1.5 7.5,1.9 6.8,2.8 C6.1,3.7 5.9,4.9 5.9,6 C5.9,8.8 7.6,13.5 11.2,13.5 C12.3,13.5 13.4,12.9 14.1,12.2 C15.1,11.2 15.2,10 15.2,9.2 C15.2,6.2 13.4,1.5 9.8,1.5 L9.8,1.5 Z" id="Shape"></path>
                </g>
            </g>
            <g id="gel-icon-linkedin" transform="translate(1.000000, 1.000000)" fill="#000000">
                <g id="linkedin-Layer_2">
                    <path d="M7.3,31.5 L7.3,10.6 L0.4,10.6 L0.4,31.5 L7.3,31.5 L7.3,31.5 Z M3.8,7.7 C6.2,7.7 7.7,6.1 7.7,4.1 C7.7,2.1 6.2,0.5 3.9,0.5 C1.5,0.5 0,2.1 0,4.1 C0,6.1 1.5,7.7 3.8,7.7 L3.8,7.7 Z" id="Shape"></path>
                    <path d="M11.1,31.5 L18,31.5 L18,19.8 C18,19.2 18,18.5 18.2,18.1 C18.7,16.9 19.8,15.6 21.7,15.6 C24.2,15.6 25.2,17.5 25.2,20.3 L25.2,31.5 L32,31.5 L32,19.5 C32,13.1 28.6,10.1 24.1,10.1 C20.4,10.1 18.8,12.2 17.9,13.6 L17.9,10.6 L11,10.6 C11.2,12.5 11.1,31.5 11.1,31.5 L11.1,31.5 Z" id="Shape"></path>
                </g>
            </g>
            <g id="gel-icon-my-radio" transform="translate(1.000000, 2.000000)" fill="#000000">
                <path d="M30,6 L30,0 L2,0 L2,6 L0,6 L0,30 L12,30 L14,25 L25,25 L27,30 L32,30 L32,6 L30,6 L30,6 Z M6,20 C4.9,20 4,19.1 4,18 C4,16.9 4.9,16 6,16 C7.1,16 8,16.9 8,18 C8,19.1 7.1,20 6,20 L6,20 Z M6,14 C4.9,14 4,13.1 4,12 C4,10.9 4.9,10 6,10 C7.1,10 8,10.9 8,12 C8,13.1 7.1,14 6,14 L6,14 Z M19.5,23 C15.9,23 13,20.1 13,16.5 C13,12.9 15.9,10 19.5,10 C23.1,10 26,12.9 26,16.5 C26,20.1 23.1,23 19.5,23 L19.5,23 Z M28,6 L4,6 L4,2 L28,2 L28,6 L28,6 Z" id="my-radio-Layer_2"></path>
            </g>
            <g id="gel-icon-pinterest" transform="translate(1.000000, 1.000000)" fill="#000000">
                <path d="M16,0 C7.2,0 0,7.2 0,16 C0,22.6 3.9,28.2 9.6,30.7 C9.6,29.6 9.6,28.2 9.9,27 C10.2,25.7 12,18.3 12,18.3 C12,18.3 11.5,17.3 11.5,15.8 C11.5,13.4 12.9,11.7 14.6,11.7 C16.1,11.7 16.8,12.8 16.8,14.1 C16.8,15.6 15.9,17.8 15.4,19.8 C15,21.5 16.3,22.9 17.9,22.9 C20.9,22.9 23,19 23,14.4 C23,10.9 20.6,8.3 16.3,8.3 C11.4,8.3 8.4,11.9 8.4,16 C8.4,17.4 8.8,18.4 9.5,19.1 C9.8,19.5 9.8,19.6 9.7,20 C9.6,20.3 9.4,21 9.4,21.3 C9.3,21.7 9,21.9 8.6,21.7 C6.4,20.8 5.3,18.3 5.3,15.6 C5.3,11.1 9.1,5.6 16.7,5.6 C22.8,5.6 26.8,10 26.8,14.8 C26.8,21.1 23.3,25.8 18.2,25.8 C16.5,25.8 14.8,24.9 14.3,23.8 C14.3,23.8 13.4,27.5 13.2,28.2 C12.9,29.4 12.2,30.7 11.6,31.6 C13,32 14.6,32.3 16.1,32.3 C24.9,32.3 32.1,25.1 32.1,16.3 C32.1,7.5 24.8,0 16,0 L16,0 Z" id="pinterest-Layer_2"></path>
            </g>
            <g id="gel-icon-recommend" transform="translate(1.000000, 1.000000)" fill="#000000">
                <path d="M16,28 C9.4,28 4,22.6 4,16 C4,9.4 9.4,4 16,4 C19.1,4 22,5.2 24.1,7.2 L15.4,17.6 L10,13.8 L7,17.3 L15.8,24.1 L26.8,11 L29.6,7.7 C26.8,3.1 21.8,0 16,0 C7.2,0 0,7.2 0,16 C0,24.8 7.2,32 16,32 C24.8,32 32,24.8 32,16 L28,16 C28,22.6 22.6,28 16,28" id="recommend-Layer_2"></path>
            </g>
            <g id="gel-icon-share" transform="translate(2.000000, 1.000000)" fill="#000000">
                <path d="M5.8,22.2 C7.4,22.2 8.8,21.5 9.8,20.4 L18.8,25.2 C18.7,25.6 18.6,26 18.6,26.5 C18.6,29.5 21.1,32 24.1,32 C27.1,32 29.6,29.6 29.6,26.5 C29.6,23.4 27.1,21 24.1,21 C22.5,21 21.1,21.7 20.1,22.8 L10.6,17.6 L10.5,14.8 L20.2,9.3 C21.2,10.3 22.5,10.8 24,10.8 C27,10.8 29.5,8.3 29.5,5.3 C29.5,2.3 27.2,0 24.2,0 C21.2,0 18.7,2.4 18.7,5.5 C18.7,6.1 18.8,6.6 18.9,7.1 L9.6,12.8 C8.6,11.9 7.3,11.3 5.8,11.3 C2.8,11.3 0.3,13.7 0.3,16.8 C0.4,19.7 2.8,22.2 5.8,22.2 L5.8,22.2 Z" id="share-Layer_2"></path>
            </g>
            <g id="gel-icon-sign-in" transform="translate(2.000000, 2.000000)" fill="#000000">
                <g id="sign-in-Layer_2">
                    <path d="M0,0 L0,30 L30,30 L30,0 L0,0 L0,0 Z M19.8,22.6 L18.5,20 L11.5,20 L10.1,22.6 C7.7,21 6,18.2 6,15 C6,10 10,6 15,6 C20,6 24,10 24,15 C24,18.2 22.3,21 19.8,22.6 L19.8,22.6 Z" id="Shape"></path>
                    <circle id="Oval" cx="15" cy="15" r="3.5"></circle>
                </g>
            </g>
            <g id="gel-icon-sign-out" transform="translate(2.000000, 2.000000)" fill="#000000">
                <path d="M0,0 L0,30 L30,30 L30,0 L0,0 L0,0 Z M21.1,21.6 L20.6,20.5 C22,19.1 22.9,17.1 22.9,14.9 C22.9,10.6 19.4,7 15,7 C10.6,7 7.1,10.7 7.1,15 C7.1,17.7 8.5,20.2 10.6,21.6 L11.4,20 L18.4,20 L19.7,22.6 C18.4,23.5 16.8,24 15,24 C10,24 6,20 6,15 C6,10 10,6 15,6 C20,6 24,10 24,15 C24,17.6 22.9,20 21.1,21.6 L21.1,21.6 Z M18.5,15 C18.5,16.9 16.9,18.5 15,18.5 C13.1,18.5 11.5,16.9 11.5,15 C11.5,13.1 13.1,11.5 15,11.5 C16.9,11.5 18.5,13.1 18.5,15 L18.5,15 Z" id="sign-out-Layer_2"></path>
            </g>
            <g id="gel-icon-stumble-upon" transform="translate(1.000000, 1.000000)" fill="#000000">
                <path d="M16,0 C7.2,0 0,7.2 0,16 C0,24.8 7.2,32 16,32 C24.8,32 32,24.8 32,16 C32,7.2 24.8,0 16,0 L16,0 Z M16,13 C15.2,13 14.5,13.7 14.4,14.5 L14.4,17.6 C14.3,19.8 12.5,21.5 10.3,21.5 C8.1,21.5 6.3,19.8 6.2,17.6 L6.2,16 L8.7,16 L8.7,17.6 C8.7,18.4 9.4,19.1 10.2,19.1 C11,19.1 11.7,18.5 11.7,17.6 L11.7,14.5 C11.8,12.3 13.6,10.6 15.8,10.6 C18,10.6 19.8,12.3 19.8,14.5 L18.3,14.9 L17.3,14.5 C17.5,13.6 16.8,13 16,13 L16,13 Z M25.7,17.6 C25.6,19.8 23.8,21.5 21.6,21.5 C19.4,21.5 17.6,19.8 17.5,17.6 L17.5,16 L18.5,16.4 L20,16 L20,17.6 C20,18.4 20.7,19.1 21.5,19.1 C22.3,19.1 23,18.5 23,17.6 L23,16 L25.5,16 L25.5,17.6 L25.7,17.6 Z" id="stumble-upon-Layer_2"></path>
            </g>
            <g id="gel-icon-subscribe-to-podcast" transform="translate(1.000000, 1.000000)" fill="#000000">
                <g id="subscribe-to-podcast-Layer_2">
                    <path d="M22,6 C24.2,6 26.2,6.9 27.7,8.3 L29.1,6.9 C27.3,5.1 24.8,4 22,4 C19.2,4 16.7,5.1 14.9,6.9 L16.3,8.3 C17.8,6.9 19.8,6 22,6" id="Shape"></path>
                    <path d="M22,2 C25.3,2 28.3,3.3 30.5,5.5 L32,4.1 C29.4,1.6 25.9,0 22,0 C18.1,0 14.6,1.6 12.1,4.1 L13.5,5.5 C15.7,3.3 18.7,2 22,2" id="Shape"></path>
                    <path d="M14,12 L9,12 L9,7 L5,7 L5,12 L0,12 L0,16 L5,16 L5,21 L9,21 L9,16 L14,16 L14,12 Z" id="Shape"></path>
                    <path d="M26,14 C26,16.2 24.2,18 22,18 C19.8,18 18,16.2 18,14 C18,11.8 19.8,10 22,10 C24.2,10 26,11.8 26,14" id="Shape"></path>
                    <path d="M16,19 L28,19 L25,32 L19,32 L16,19 Z" id="Shape"></path>
                </g>
            </g>
            <g id="gel-icon-terms-conditions" transform="translate(4.000000, 1.000000)" fill="#000000">
                <g id="terms-conditions-Layer_2">
                    <path d="M22,4 L22,7 L23,7 L23,29 L3,29 L3,7 L6,7 L6,9 L20,9 L20,3 L16,3 C16,1.3 14.7,0 13,0 C11.3,0 10,1.3 10,3 L6,3 L6,4 L0,4 L0,32 L26,32 L26,4 L22,4 L22,4 Z" id="Shape"></path>
                    <path d="M8.5,16.2 L6.5,18.5 L11.8,23 L19.3,14 L17,12.1 L11.5,18.7 L8.5,16.2 Z" id="Shape"></path>
                </g>
            </g>
            <g id="gel-icon-tumblr" transform="translate(8.000000, 1.000000)" fill="#000000">
                <path d="M11,0 L11,8.2 L17.3,8.2 L17.3,13 L10.9,13 L10.9,21.3 C10.9,23.2 11.1,24.1 11.3,24.6 C11.5,25.1 11.8,25.5 12.3,25.8 C12.8,26.1 13.3,26.2 14.1,26.2 C14.5,26.2 15.5,26.1 16.6,25.6 L18.1,30.2 C17.5,30.7 16.6,31.3 15.2,31.7 C14,31.9 13.2,32 12,32 C10.6,32 9.7,31.8 8.6,31.4 C7.5,31 6.8,30.5 6,29.8 C5.2,29.1 4.7,28.4 4.3,27.6 C3.8,26.8 3.3,25.4 3.2,23.8 L3.2,13 L-1.77635684e-15,13 L-1.77635684e-15,8.8 C1.2,8.4 2.1,7.8 3,7 C4.2,5.9 4.7,5 5.1,4.1 C5.6,3.1 6,1.6 6.2,1.77635684e-15 L11,1.77635684e-15 L11,0 Z" id="tumblr-Layer_2"></path>
            </g>
            <g id="gel-icon-twitter" transform="translate(0.000000, 4.000000)" fill="#000000">
                <path d="M33,3.1 C31.8,3.6 30.6,4 29.2,4.1 C30.6,3.3 31.6,2 32.1,0.5 C30.8,1.3 29.4,1.8 27.9,2.1 C26.7,0.8 25,0 23.2,0 C19.6,0 16.6,2.9 16.6,6.6 C16.6,7.1 16.7,7.6 16.8,8.1 C11.3,7.8 6.5,5.2 3.2,1.2 C2.6,2.2 2.3,3.3 2.3,4.5 C2.3,6.8 3.5,8.8 5.2,10 C4.1,10 3.1,9.7 2.2,9.2 L2.2,9.3 C2.2,12.5 4.5,15.1 7.5,15.7 C6.9,15.8 6.4,15.9 5.8,15.9 C5.4,15.9 5,15.9 4.6,15.8 C5.4,18.4 7.9,20.3 10.7,20.4 C8.5,22.2 5.6,23.2 2.5,23.2 C2,23.2 1.4,23.2 0.9,23.1 C3.9,24.9 7.4,26 11.1,26 C23.2,26 29.8,16 29.8,7.3 L29.8,6.4 C31,5.5 32.1,4.4 33,3.1 L33,3.1 Z" id="twitter-Layer_2"></path>
            </g>
        </g>
    </g>
</svg>
